X:273
T:Fear Not, O Little Flock
%%stretchlast false
M:4/4
L:1/4
K:Eb clef=C1
"^ii"[F,Acf]2 [F,Acf] "^v"[B,B_df] | "^IV"[A,Ecc']3 "^I"[EGeb] | "^vi"[CGec'] "^ii"[Fca] "^V/ii"[C=Ecg]2 | "^ii"[Fc] "^♭VII"[_DA_df] "^V7"[B,Fda] "^i¹"[A,Beg] | "^IV"[A,cea]2 [Acea] "^IV²"[EAec'] | "^iii"[FGcb] "^ii²"[CFca] "^VI"[C=Ecg] [C=Ecg] | "^♯vi"[B,_d] "^I7²"[B,E_dg] "^v"[B,F_db] [CFcb]/ "^V¹"[DFcb]/ | [EFBb] "^i¹"[A,Eea]/ [A,Fea]/ "^I²"[B,Geg] "^♯iii°"[B,cda] | "^i"[E,Bef]2 "^vi"[CGe] [FGce] | "^i"[Ee] "^i¹"[A,Ge] [A,Aea] [A,Beg] | "^IV"[Acea] "^IV²"[Ecea] "^ii"[Fca] "^vi+"[CAcc'] | "^vi7"[CGcb] "^ii"[Fca] "^♭vii°"[_D=E_dg] "^iii¹"[B,=Edg] | "^i¹"[A,e] [A,Aef] "^i"[A,Fea] "^i¹"[ABeg] | "^IV²"[Ecea] "^ii"[Fca] "^vi+"[Cca] [CAcc'] | "^iii°²"[_DGAb] "^ii¹"[A,Fca] "^IV+"[A,=Ecg] [A,=Ecg] | "^i"[Ee] "^ii"[Fcf] "^♯vi"[B,E_dc'] "^vi"[CEcc'] | [CEcc'] "^iii"[F,Gcb] "^ii"[F,Fca] "^v"[Fb] | "^♯i"[=Eg]2 "^II¹"[=Af]2 |]
